actions/128/mail-reply-all.svg

<?xml version="1.0" encoding="UTF-8" standalone="no"?>
<svg
   xmlns:dc="http://purl.org/dc/elements/1.1/"
   xmlns:cc="http://creativecommons.org/ns#"
   xmlns:rdf="http://www.w3.org/1999/02/22-rdf-syntax-ns#"
   xmlns:svg="http://www.w3.org/2000/svg"
   xmlns="http://www.w3.org/2000/svg"
   xmlns:xlink="http://www.w3.org/1999/xlink"
   version="1.1"
   width="128"
   height="128"
   id="svg4143">
  <defs
     id="defs4145">
    <linearGradient
       x1="23.731871"
       y1="4.4175272"
       x2="23.731871"
       y2="42.03978"
       id="linearGradient3234"
       xlink:href="#linearGradient2867-449-88-871-390-598-476-591-434-148-57-177-3"
       gradientUnits="userSpaceOnUse"
       gradientTransform="matrix(-2.8314011,0,0,2.6285596,152.26,2.2796055)" />
    <linearGradient
       id="linearGradient2867-449-88-871-390-598-476-591-434-148-57-177-3">
      <stop
         id="stop3750-8"
         style="stop-color:#90dbec;stop-opacity:1"
         offset="0" />
      <stop
         id="stop3752-5"
         style="stop-color:#55c1ec;stop-opacity:1"
         offset="0.26238" />
      <stop
         id="stop3754-6"
         style="stop-color:#3689e6;stop-opacity:1"
         offset="0.704952" />
      <stop
         id="stop3756-1"
         style="stop-color:#2b63a0;stop-opacity:1"
         offset="1" />
    </linearGradient>
    <linearGradient
       x1="38.940514"
       y1="15.991243"
       x2="20.576487"
       y2="15.991243"
       id="linearGradient3238"
       xlink:href="#linearGradient4087-8"
       gradientUnits="userSpaceOnUse"
       gradientTransform="matrix(0,-3.0804774,-3.3181932,0,147.21217,144.48761)" />
    <linearGradient
       id="linearGradient4087-8">
      <stop
         id="stop4089-85"
         style="stop-color:#ffffff;stop-opacity:1"
         offset="0" />
      <stop
         id="stop4091-0"
         style="stop-color:#ffffff;stop-opacity:0.23529412"
         offset="0.51153916" />
      <stop
         id="stop4093-9"
         style="stop-color:#ffffff;stop-opacity:0.15686275"
         offset="0.58522105" />
      <stop
         id="stop4095-6"
         style="stop-color:#ffffff;stop-opacity:0.39215687"
         offset="1" />
    </linearGradient>
    <radialGradient
       cx="24.837126"
       cy="36.421127"
       r="15.644737"
       fx="24.837126"
       fy="36.421127"
       id="radialGradient3140"
       xlink:href="#linearGradient8662"
       gradientUnits="userSpaceOnUse"
       gradientTransform="matrix(1,0,0,0.536723,0,16.87306)" />
    <linearGradient
       id="linearGradient8662">
      <stop
         id="stop8664"
         style="stop-color:#000000;stop-opacity:1"
         offset="0" />
      <stop
         id="stop8666"
         style="stop-color:#000000;stop-opacity:0"
         offset="1" />
    </linearGradient>
    <radialGradient
       cx="24.837126"
       cy="36.421127"
       r="15.644737"
       fx="24.837126"
       fy="36.421127"
       id="radialGradient4195"
       xlink:href="#linearGradient8662-7"
       gradientUnits="userSpaceOnUse"
       gradientTransform="matrix(1,0,0,0.536723,0,16.87306)" />
    <linearGradient
       id="linearGradient8662-7">
      <stop
         id="stop8664-0"
         style="stop-color:#000000;stop-opacity:1"
         offset="0" />
      <stop
         id="stop8666-1"
         style="stop-color:#000000;stop-opacity:0"
         offset="1" />
    </linearGradient>
    <linearGradient
       x1="38.940514"
       y1="15.991243"
       x2="20.576487"
       y2="15.991243"
       id="linearGradient3269-3"
       xlink:href="#linearGradient4087-8"
       gradientUnits="userSpaceOnUse"
       gradientTransform="matrix(0,-3.0804774,-3.3181932,0,114.21217,144.48761)" />
    <linearGradient
       x1="23.731871"
       y1="4.4175272"
       x2="23.731871"
       y2="52.658817"
       id="linearGradient3234-8-9"
       xlink:href="#linearGradient4330"
       gradientUnits="userSpaceOnUse"
       gradientTransform="matrix(-2.8314011,0,0,2.6285596,119.26,2.279599)" />
    <linearGradient
       id="linearGradient4330">
      <stop
         id="stop4332"
         style="stop-color:#f0c1ff;stop-opacity:1"
         offset="0" />
      <stop
         id="stop4334"
         style="stop-color:#c5a3f2;stop-opacity:1"
         offset="0.26238" />
      <stop
         id="stop4336"
         style="stop-color:#7a36b1;stop-opacity:1"
         offset="0.704952" />
      <stop
         id="stop4338"
         style="stop-color:#4c2d81;stop-opacity:1"
         offset="1" />
    </linearGradient>
  </defs>
  <metadata
     id="metadata4148">
    <rdf:RDF>
      <cc:Work
         rdf:about="">
        <dc:format>image/svg+xml</dc:format>
        <dc:type
           rdf:resource="http://purl.org/dc/dcmitype/StillImage" />
        <dc:title />
      </cc:Work>
    </rdf:RDF>
  </metadata>
  <path
     style="display:block;overflow:visible;visibility:visible;fill:url(#linearGradient3234-8-9);fill-opacity:1;fill-rule:nonzero;stroke:none;stroke-width:0.96392488;stroke-linecap:butt;stroke-linejoin:round;stroke-miterlimit:7;stroke-dasharray:none;stroke-dashoffset:0;stroke-opacity:1;marker:none"
     id="path3503-0-5-5"
     d="M 74.903216,103.51805 C 110.85466,79.311508 90.572654,34.763305 50.499997,35.127999 l 0,-20.646051 -48.0180311,35.573889 48.0180311,35.396912 0,-20.646052 c 25.845255,-0.999749 41.586727,21.820858 23.109982,38.711353 z" />
  <path
     style="display:block;overflow:visible;visibility:visible;opacity:0.52999998;fill:none;stroke:url(#linearGradient3269-3);stroke-width:0.96392488;stroke-linecap:butt;stroke-linejoin:miter;stroke-miterlimit:7;stroke-dasharray:none;stroke-dashoffset:0;stroke-opacity:1;marker:none"
     id="path3505-4-9-8"
     d="M 78.791578,99.698868 C 106.192,74.840895 89.942414,35.985328 49.500001,35.985328 l 0,-19.462637 -45.2343381,33.533146 45.2343381,33.450678 0,-19.794246 c 31.84665,-0.727875 38.277093,23.305505 29.291577,35.986599 z" />
  <path
     style="color:#000000;clip-rule:nonzero;display:inline;overflow:visible;visibility:visible;opacity:0.5;isolation:auto;mix-blend-mode:normal;color-interpolation:sRGB;color-interpolation-filters:linearRGB;solid-color:#000000;solid-opacity:1;fill:none;fill-opacity:1;fill-rule:nonzero;stroke:#6326b9;stroke-width:1;stroke-linecap:butt;stroke-linejoin:round;stroke-miterlimit:4;stroke-dasharray:none;stroke-dashoffset:0;stroke-opacity:1;marker:none;color-rendering:auto;image-rendering:auto;shape-rendering:auto;text-rendering:auto;enable-background:accumulate"
     id="path3503-0-5-6"
     d="M 74.903216,103.51805 C 110.85466,79.311511 90.572654,34.763308 50.499997,35.128002 l 0,-20.646051 -48.0180311,35.573889 48.0180311,35.396912 0,-20.646052 c 25.845255,-0.999749 41.586727,21.820858 23.109982,38.71135 z" />
  <g
     id="layer1-6"
     transform="matrix(5.3333333,0,0,5.3333333,0,-42.66667)">
    <path
       style="display:inline;overflow:visible;visibility:visible;opacity:0.14117647;fill:url(#radialGradient3140);fill-opacity:1;fill-rule:evenodd;stroke:none;stroke-width:1;marker:none"
       id="path3501"
       transform="matrix(0.52995454,0,0,-0.65783905,0.487385,48.935435)"
       d="m 40.481863,36.421127 a 15.644737,8.3968954 0 1 1 -31.2894745,0 15.644737,8.3968954 0 1 1 31.2894745,0 z" />
    <g
       id="g4190"
       transform="translate(-2,0)">
      <path
         style="display:inline;overflow:visible;visibility:visible;opacity:0.14117647;fill:url(#radialGradient4195);fill-opacity:1;fill-rule:evenodd;stroke:none;stroke-width:1;marker:none"
         id="path3501-0"
         transform="matrix(0.52995454,0,0,-0.65783905,0.487385,48.935435)"
         d="m 40.481863,36.421127 a 15.644737,8.3968954 0 1 1 -31.2894745,0 15.644737,8.3968954 0 1 1 31.2894745,0 z" />
    </g>
  </g>
  <path
     d="M 107.90321,103.51805 C 143.85466,79.311513 123.57265,34.763311 83.499995,35.128005 l 0,-20.646052 -48.01803,35.57389 48.01803,35.396911 0,-20.646051 C 109.34525,63.806954 125.08672,86.62756 106.60998,103.51805 Z"
     id="path3503-0"
     style="display:block;overflow:visible;visibility:visible;fill:url(#linearGradient3234);fill-opacity:1;fill-rule:nonzero;stroke:none;stroke-width:0.96392488;stroke-linecap:butt;stroke-linejoin:round;stroke-miterlimit:7;stroke-dasharray:none;stroke-dashoffset:0;stroke-opacity:1;marker:none" />
  <path
     d="M 111.79158,99.698874 C 139.192,74.8409 122.94241,35.985334 82.5,35.985334 L 82.5,16.522697 37.265661,50.055843 82.5,83.50652 l 0,-19.794245 c 31.84665,-0.727875 38.27709,23.305504 29.29158,35.986599 z"
     id="path3505-4"
     style="display:block;overflow:visible;visibility:visible;opacity:0.52999998;fill:none;stroke:url(#linearGradient3238);stroke-width:0.96392488;stroke-linecap:butt;stroke-linejoin:miter;stroke-miterlimit:7;stroke-dasharray:none;stroke-dashoffset:0;stroke-opacity:1;marker:none" />
  <path
     d="M 107.90321,103.51805 C 143.85466,79.311515 123.57265,34.763313 83.499995,35.128007 l 0,-20.646052 -48.01803,35.57389 48.01803,35.396911 0,-20.646051 c 25.845255,-0.999749 41.586725,21.820857 23.109985,38.711345 z"
     id="path3503-0-0"
     style="display:inline;overflow:visible;visibility:visible;fill:#000000;fill-opacity:0;fill-rule:nonzero;stroke:#00537d;stroke-width:1;stroke-linecap:round;stroke-linejoin:round;stroke-miterlimit:4;stroke-dasharray:none;stroke-dashoffset:0;stroke-opacity:1;marker:none;color:#000000;clip-rule:nonzero;opacity:0.5;isolation:auto;mix-blend-mode:normal;color-interpolation:sRGB;color-interpolation-filters:linearRGB;solid-color:#000000;solid-opacity:1;filter-blend-mode:normal;filter-gaussianBlur-deviation:0;color-rendering:auto;image-rendering:auto;shape-rendering:auto;text-rendering:auto;enable-background:accumulate" />
</svg>

<svg xmlns="http://www.w3.org/2000/svg" xmlns:xlink="http://www.w3.org/1999/xlink" viewBox="0 0 128 128"><defs><linearGradient x1="23.732" y1="4.418" x2="23.732" y2="42.04" id="j" xlink:href="#a" gradientUnits="userSpaceOnUse" gradientTransform="matrix(-2.8314 0 0 2.62856 152.26 2.28)"/><linearGradient id="a"><stop offset="0" stop-color="#90dbec"/><stop offset=".262" stop-color="#55c1ec"/><stop offset=".705" stop-color="#3689e6"/><stop offset="1" stop-color="#2b63a0"/></linearGradient><linearGradient x1="38.941" y1="15.991" x2="20.576" y2="15.991" id="k" xlink:href="#b" gradientUnits="userSpaceOnUse" gradientTransform="matrix(0 -3.08048 -3.3182 0 147.212 144.488)"/><linearGradient id="b"><stop offset="0" stop-color="#fff"/><stop offset=".512" stop-color="#fff" stop-opacity=".235"/><stop offset=".585" stop-color="#fff" stop-opacity=".157"/><stop offset="1" stop-color="#fff" stop-opacity=".392"/></linearGradient><radialGradient cx="24.837" cy="36.421" r="15.645" fx="24.837" fy="36.421" id="h" xlink:href="#c" gradientUnits="userSpaceOnUse" gradientTransform="matrix(1 0 0 .53672 0 16.873)"/><linearGradient id="c"><stop offset="0"/><stop offset="1" stop-opacity="0"/></linearGradient><radialGradient cx="24.837" cy="36.421" r="15.645" fx="24.837" fy="36.421" id="i" xlink:href="#d" gradientUnits="userSpaceOnUse" gradientTransform="matrix(1 0 0 .53672 0 16.873)"/><linearGradient id="d"><stop offset="0"/><stop offset="1" stop-opacity="0"/></linearGradient><linearGradient x1="38.941" y1="15.991" x2="20.576" y2="15.991" id="g" xlink:href="#b" gradientUnits="userSpaceOnUse" gradientTransform="matrix(0 -3.08048 -3.3182 0 114.212 144.488)"/><linearGradient x1="23.732" y1="4.418" x2="23.732" y2="52.659" id="f" xlink:href="#e" gradientUnits="userSpaceOnUse" gradientTransform="matrix(-2.8314 0 0 2.62856 119.26 2.28)"/><linearGradient id="e"><stop offset="0" stop-color="#f0c1ff"/><stop offset=".262" stop-color="#c5a3f2"/><stop offset=".705" stop-color="#7a36b1"/><stop offset="1" stop-color="#4c2d81"/></linearGradient></defs><path d="M74.903 103.518c35.952-24.206 15.67-68.755-24.403-68.39V14.482L2.482 50.056 50.5 85.453V64.807c25.845-1 41.587 21.82 23.11 38.71z" display="block" overflow="visible" fill="url(#f)"/><path d="M78.792 99.7c27.4-24.86 11.15-63.715-29.292-63.715V16.523L4.266 50.056 49.5 83.506V63.713C81.347 62.985 87.777 87.02 78.792 99.7z" display="block" overflow="visible" opacity=".53" fill="none" stroke="url(#g)" stroke-width=".964" stroke-miterlimit="7"/><path style="isolation:auto;mix-blend-mode:normal" d="M74.903 103.518c35.952-24.206 15.67-68.755-24.403-68.39V14.482L2.482 50.056 50.5 85.453V64.807c25.845-1 41.587 21.82 23.11 38.71z" color="#000" overflow="visible" opacity=".5" fill="none" stroke="#6326b9" stroke-linejoin="round"/><path transform="matrix(2.82642 0 0 -3.50847 2.6 218.322)" d="M40.482 36.42a15.645 8.397 0 1 1-31.29 0 15.645 8.397 0 1 1 31.29 0z" overflow="visible" opacity=".141" fill="url(#h)" fill-rule="evenodd"/><path transform="matrix(2.82642 0 0 -3.50847 -8.067 218.322)" d="M40.482 36.42a15.645 8.397 0 1 1-31.29 0 15.645 8.397 0 1 1 31.29 0z" overflow="visible" opacity=".141" fill="url(#i)" fill-rule="evenodd"/><path d="M107.903 103.518c35.952-24.206 15.67-68.755-24.403-68.39V14.482L35.482 50.056 83.5 85.453V64.807c25.845-1 41.587 21.82 23.11 38.71z" display="block" overflow="visible" fill="url(#j)"/><path d="M111.792 99.7c27.4-24.86 11.15-63.715-29.292-63.715V16.523L37.266 50.056 82.5 83.506V63.713c31.847-.728 38.277 23.306 29.292 35.987z" display="block" overflow="visible" opacity=".53" fill="none" stroke="url(#k)" stroke-width=".964" stroke-miterlimit="7"/><path d="M107.903 103.518c35.952-24.206 15.67-68.755-24.403-68.39V14.482L35.482 50.056 83.5 85.453V64.807c25.845-1 41.587 21.82 23.11 38.71z" style="isolation:auto;mix-blend-mode:normal;filter-blend-mode:normal;filter-gaussianBlur-deviation:0" overflow="visible" stroke="#00537d" stroke-linecap="round" stroke-linejoin="round" color="#000" opacity=".5" fill="none"/></svg>
